; generated by PrusaSlicer 2.1.1+ on 2020-03-18 at 10:43:16 UTC

; 

; external perimeters extrusion width = 0.40mm
; perimeters extrusion width = 0.40mm
; infill extrusion width = 0.60mm
; solid infill extrusion width = 0.60mm
; top infill extrusion width = 0.40mm
; first layer extrusion width = 0.60mm

M107
M190 S65 ; set bed temperature and wait for it to be reached
M104 S220 ; set temperature
G1 Z5 F600 ; lift nozzle
T0 ;select extruder zero so heating can commence

m116 ;wait for temperatures
g1 x0 y0 z30 f3000 ;go to drool position
m83 ; extruder relative
g1 e10 f120 ;drool
g1 e-1 f60 ;retract
; m82 ;extruder absolute
g92 e-1 ;set absolute position
g4 p10000 ;wait ten seconds

M109 S220 ; set temperature and wait for it to be reached
G21 ; set units to millimeters
G90 ; use absolute coordinates
M83 ; use relative distances for extrusion
; Filament gcode
m701 s"PLA reg" ;load filament parameters on printer

;END LAYER -1
G1 Z0.240 F9000.000
; BEGIN LAYER 0 z=0.24

G10 ; retract
G1 X73.815 Y70.503
G11 ; unretract
G1 F2400
G1 X74.402 Y69.254 E0.07551
G1 X75.211 Y68.137 E0.07551
G1 X80.810 Y62.529 E0.43369
G1 X81.667 Y61.863 E0.05942
G1 X82.607 Y61.333 E0.05905
G1 X83.620 Y60.943 E0.05942
G1 X84.673 Y60.708 E0.05905
G1 X85.743 Y60.629 E0.05868
G1 X140.757 Y60.629 E3.01088
G1 X142.124 Y60.758 E0.07515
G1 X143.443 Y61.138 E0.07515
G1 X144.669 Y61.757 E0.07515
G1 X145.759 Y62.592 E0.07515
G1 X150.995 Y67.821 E0.40502
G1 X151.578 Y68.487 E0.04843
G1 X152.121 Y69.293 E0.05319
G1 X152.551 Y70.157 E0.05282
G1 X152.864 Y71.070 E0.05282
G1 X153.055 Y72.016 E0.05282
G1 X153.121 Y72.993 E0.05356
G1 X153.121 Y147.034 E4.05220
G1 X153.009 Y148.281 E0.06856
G1 X152.685 Y149.498 E0.06893
G1 X152.101 Y150.741 E0.07515
G1 X151.297 Y151.854 E0.07515
G1 X145.759 Y157.408 E0.42923
G1 X144.971 Y158.043 E0.05539
G1 X144.104 Y158.564 E0.05539
G1 X143.173 Y158.962 E0.05539
G1 X142.190 Y159.229 E0.05575
G1 X140.778 Y159.371 E0.07770
G1 X107.761 Y159.371 E1.80698
G1 X106.527 Y159.257 E0.06783
G1 X105.323 Y158.935 E0.06820
G1 X104.068 Y158.344 E0.07588
G1 X102.952 Y157.534 E0.07551
G1 X97.027 Y151.630 E0.45776
G1 X70.818 Y125.310 E2.03285
G1 X69.861 Y124.078 E0.08537
G1 X69.186 Y122.672 E0.08537
G1 X68.899 Y121.632 E0.05905
G1 X68.768 Y120.561 E0.05905
G1 X68.787 Y114.550 E0.32896
G1 X73.426 Y72.164 E2.33359
G1 X73.801 Y70.561 E0.09012
G1 X74.333 Y70.686 F9000.000
G1 F2400
G1 X74.883 Y69.518 E0.07066
G1 X75.638 Y68.482 E0.07018
G1 X81.178 Y62.936 E0.42903
G1 X81.972 Y62.318 E0.05505
G1 X82.855 Y61.822 E0.05540
G1 X83.794 Y61.464 E0.05505
G1 X84.783 Y61.246 E0.05540
G1 X85.741 Y61.177 E0.05258
G1 X140.756 Y61.177 E3.01094
G1 X142.027 Y61.298 E0.06983
G1 X143.252 Y61.653 E0.06983
G1 X144.390 Y62.229 E0.06983
G1 X145.401 Y63.008 E0.06983
G1 X151.130 Y68.804 E0.44600
G1 X151.640 Y69.556 E0.04976
G1 X152.045 Y70.370 E0.04976
G1 X152.339 Y71.230 E0.04976
G1 X152.516 Y72.122 E0.04976
G1 X152.573 Y72.991 E0.04765
G1 X152.573 Y147.032 E4.05221
G1 X152.466 Y148.200 E0.06420
G1 X152.164 Y149.327 E0.06385
G1 X151.615 Y150.486 E0.07018
G1 X150.863 Y151.517 E0.06983
G1 X145.388 Y157.003 E0.42419
G1 X144.650 Y157.598 E0.05187
G1 X143.837 Y158.085 E0.05187
G1 X142.964 Y158.454 E0.05187
G1 X142.054 Y158.697 E0.05152
G1 X140.772 Y158.823 E0.07053
G1 X107.769 Y158.823 E1.80619
G1 X106.614 Y158.715 E0.06349
G1 X105.494 Y158.414 E0.06349
G1 X104.335 Y157.865 E0.07018
G1 X103.294 Y157.105 E0.07053
G1 X97.416 Y151.243 E0.45435
G1 X71.219 Y124.936 E2.03188
G1 X70.329 Y123.792 E0.07931
G1 X69.702 Y122.486 E0.07931
G1 X69.435 Y121.516 E0.05505
G1 X69.315 Y120.517 E0.05505
G1 X69.334 Y114.594 E0.32417
G1 X73.971 Y72.225 E2.33265
G1 X74.319 Y70.744 E0.08326
G1 X74.851 Y70.870 F9000.000
G1 F2400
G1 X75.366 Y69.779 E0.06599
G1 X76.064 Y68.828 E0.06459
G1 X81.542 Y63.346 E0.42414
G1 X82.284 Y62.770 E0.05143
G1 X83.099 Y62.313 E0.05109
G1 X83.978 Y61.981 E0.05143
G1 X84.891 Y61.785 E0.05109
G1 X85.742 Y61.726 E0.04670
G1 X140.756 Y61.726 E3.01088
G1 X141.931 Y61.838 E0.06459
G1 X143.058 Y62.166 E0.06426
G1 X144.110 Y62.701 E0.06459
G1 X145.038 Y63.420 E0.06426
G1 X150.679 Y69.118 E0.43882
G1 X151.157 Y69.818 E0.04636
G1 X151.539 Y70.581 E0.04670
G1 X151.814 Y71.389 E0.04670
G1 X151.976 Y72.227 E0.04670
G1 X152.024 Y147.025 E4.09364
G1 X151.927 Y148.102 E0.05920
G1 X151.644 Y149.152 E0.05953
G1 X151.136 Y150.218 E0.06459
G1 X150.438 Y151.170 E0.06459
G1 X145.013 Y156.604 E0.42027
G1 X144.328 Y157.154 E0.04805
G1 X143.574 Y157.603 E0.04805
G1 X142.770 Y157.940 E0.04772
G1 X141.921 Y158.164 E0.04805
G1 X140.770 Y158.274 E0.06324
G1 X107.772 Y158.274 E1.80600
G1 X106.707 Y158.175 E0.05852
G1 X105.669 Y157.894 E0.05886
G1 X104.593 Y157.380 E0.06527
G1 X103.638 Y156.676 E0.06493
G1 X97.804 Y150.856 E0.45097
G1 X71.619 Y124.561 E2.03095
G1 X70.796 Y123.503 E0.07335
G1 X70.216 Y122.295 E0.07335
G1 X69.970 Y121.394 E0.05109
G1 X69.862 Y120.473 E0.05076
G1 X69.881 Y114.638 E0.31939
G1 X74.516 Y72.293 E2.33135
G1 X74.837 Y70.928 E0.07672
G10 ; retract
G1 X85.219 Y101.067 F9000.000
G11 ; unretract
G1 F900
G1 X84.311 Y101.727 E0.06141
G1 X83.189 Y101.727 E0.06140
G1 X82.281 Y101.067 E0.06141
G1 X81.935 Y100.000 E0.06141
G1 X82.281 Y98.933 E0.06141
G1 X83.189 Y98.273 E0.06141
G1 X84.311 Y98.273 E0.06140
G1 X85.219 Y98.933 E0.06141
G1 X85.565 Y100.000 E0.06141
G1 X85.237 Y101.010 E0.05812
G1 X85.381 Y101.433 F9000.000
G10 ; retract
G1 X84.311 Y75.727
G11 ; unretract
G1 F900
G1 X83.189 Y75.727 E0.06140
G1 X82.281 Y75.067 E0.06141
G1 X81.935 Y74.000 E0.06141
G1 X82.281 Y72.933 E0.06141
G1 X83.189 Y72.273 E0.06141
G1 X84.311 Y72.273 E0.06140
G1 X85.219 Y72.933 E0.06141
G1 X85.565 Y74.000 E0.06141
G1 X85.219 Y75.067 E0.06141
G1 X84.360 Y75.691 E0.05812
G1 X84.228 Y76.118 F9000.000
G10 ; retract
G1 X105.944 Y137.519
G11 ; unretract
G1 F900
G1 X106.734 Y137.393 E0.04378
G1 X107.553 Y137.517 E0.04536
G1 X108.284 Y137.889 E0.04485
G1 X108.861 Y138.466 E0.04468
G1 X109.231 Y139.194 E0.04467
G1 X109.359 Y140.000 E0.04467
G1 X109.231 Y140.806 E0.04467
G1 X108.861 Y141.534 E0.04467
G1 X108.284 Y142.111 E0.04468
G1 X107.556 Y142.481 E0.04467
G1 X106.750 Y142.609 E0.04468
G1 X105.944 Y142.481 E0.04468
G1 X105.216 Y142.111 E0.04467
G1 X104.639 Y141.534 E0.04467
G1 X104.269 Y140.806 E0.04467
G1 X104.141 Y140.000 E0.04468
G1 X104.269 Y139.194 E0.04468
G1 X104.639 Y138.466 E0.04467
G1 X105.216 Y137.889 E0.04467
G1 X105.890 Y137.546 E0.04139
G1 X106.115 Y138.047 F9000.000
G1 F900
G1 X106.736 Y137.948 E0.03439
G1 X107.384 Y138.046 E0.03585
G1 X107.957 Y138.338 E0.03522
G1 X108.412 Y138.793 E0.03517
G1 X108.703 Y139.365 E0.03516
G1 X108.804 Y140.000 E0.03517
G1 X108.703 Y140.635 E0.03517
G1 X108.412 Y141.207 E0.03516
G1 X107.957 Y141.662 E0.03517
G1 X107.385 Y141.953 E0.03516
G1 X106.750 Y142.054 E0.03517
G1 X106.115 Y141.953 E0.03517
G1 X105.543 Y141.662 E0.03517
G1 X105.088 Y141.207 E0.03517
G1 X104.797 Y140.635 E0.03517
G1 X104.696 Y140.000 E0.03517
G1 X104.797 Y139.365 E0.03517
G1 X105.088 Y138.793 E0.03517
G1 X105.543 Y138.338 E0.03517
G1 X106.062 Y138.074 E0.03188
G1 X106.199 Y137.656 F9000.000
G10 ; retract
G1 X106.750 Y108.609
G11 ; unretract
G1 F900
G1 X105.944 Y108.481 E0.04468
G1 X105.216 Y108.111 E0.04467
G1 X104.639 Y107.534 E0.04468
G1 X104.269 Y106.806 E0.04467
G1 X104.141 Y106.000 E0.04468
G1 X104.269 Y105.194 E0.04468
G1 X104.639 Y104.466 E0.04467
G1 X105.216 Y103.889 E0.04468
G1 X105.944 Y103.519 E0.04467
G1 X106.734 Y103.393 E0.04378
G1 X107.553 Y103.517 E0.04536
G1 X108.284 Y103.889 E0.04484
G1 X108.861 Y104.466 E0.04468
G1 X109.231 Y105.194 E0.04467
G1 X109.359 Y106.000 E0.04468
G1 X109.231 Y106.806 E0.04468
G1 X108.861 Y107.534 E0.04467
G1 X108.284 Y108.111 E0.04468
G1 X107.556 Y108.481 E0.04467
G1 X106.809 Y108.600 E0.04139
G1 X106.750 Y108.054 F9000.000
G1 F900
G1 X106.115 Y107.953 E0.03517
G1 X105.543 Y107.662 E0.03516
G1 X105.088 Y107.207 E0.03517
G1 X104.797 Y106.635 E0.03516
G1 X104.696 Y106.000 E0.03517
G1 X104.797 Y105.365 E0.03517
G1 X105.088 Y104.793 E0.03516
G1 X105.543 Y104.338 E0.03517
G1 X106.115 Y104.047 E0.03516
G1 X106.736 Y103.948 E0.03439
G1 X107.384 Y104.046 E0.03585
G1 X107.957 Y104.338 E0.03522
G1 X108.412 Y104.793 E0.03517
G1 X108.703 Y105.365 E0.03516
G1 X108.804 Y106.000 E0.03517
G1 X108.703 Y106.635 E0.03517
G1 X108.412 Y107.207 E0.03516
G1 X107.957 Y107.662 E0.03517
G1 X107.385 Y107.953 E0.03516
G1 X106.809 Y108.044 E0.03188
G1 X106.550 Y108.400 F9000.000
G10 ; retract
G1 X114.235 Y100.827
G11 ; unretract
G1 F900
G1 X113.793 Y99.961 E0.05324
G1 X113.641 Y99.000 E0.05324
G1 X113.793 Y98.039 E0.05324
G1 X114.235 Y97.173 E0.05324
G1 X114.923 Y96.485 E0.05324
G1 X115.789 Y96.043 E0.05324
G1 X116.730 Y95.894 E0.05214
G1 X117.708 Y96.042 E0.05412
G1 X118.577 Y96.485 E0.05341
G1 X119.265 Y97.173 E0.05324
G1 X119.707 Y98.039 E0.05324
G1 X119.859 Y99.000 E0.05324
G1 X119.707 Y99.961 E0.05324
G1 X119.265 Y100.827 E0.05324
G1 X118.577 Y101.515 E0.05324
G1 X117.711 Y101.957 E0.05324
G1 X116.750 Y102.109 E0.05324
G1 X115.786 Y101.956 E0.05341
G1 X114.908 Y101.501 E0.05412
G1 X114.277 Y100.870 E0.04885
G1 X114.684 Y100.501 F9000.000
G1 F900
G1 X114.321 Y99.789 E0.04373
G1 X114.196 Y99.000 E0.04373
G1 X114.321 Y98.211 E0.04373
G1 X114.684 Y97.499 E0.04373
G1 X115.249 Y96.934 E0.04373
G1 X115.961 Y96.571 E0.04373
G1 X116.732 Y96.449 E0.04274
G1 X117.538 Y96.571 E0.04461
G1 X118.251 Y96.934 E0.04379
G1 X118.816 Y97.499 E0.04373
G1 X119.179 Y98.211 E0.04373
G1 X119.304 Y99.000 E0.04373
G1 X119.179 Y99.789 E0.04373
G1 X118.816 Y100.501 E0.04373
G1 X118.251 Y101.066 E0.04373
G1 X117.539 Y101.429 E0.04373
G1 X116.750 Y101.554 E0.04373
G1 X115.960 Y101.429 E0.04379
G1 X115.236 Y101.053 E0.04461
G1 X114.726 Y100.543 E0.03946
G1 X114.286 Y100.543 F9000.000
G10 ; retract
G1 X131.641 Y99.000
G11 ; unretract
G1 F900
G1 X131.793 Y98.039 E0.05324
G1 X132.235 Y97.173 E0.05324
G1 X132.923 Y96.485 E0.05324
G1 X133.789 Y96.043 E0.05324
G1 X134.730 Y95.894 E0.05214
G1 X135.708 Y96.042 E0.05412
G1 X136.577 Y96.485 E0.05341
G1 X137.265 Y97.173 E0.05324
G1 X137.707 Y98.039 E0.05324
G1 X137.859 Y99.000 E0.05324
G1 X137.707 Y99.961 E0.05324
G1 X137.265 Y100.827 E0.05324
G1 X136.577 Y101.515 E0.05324
G1 X135.711 Y101.957 E0.05324
G1 X134.750 Y102.109 E0.05324
G1 X133.786 Y101.956 E0.05341
G1 X132.908 Y101.501 E0.05412
G1 X132.235 Y100.827 E0.05214
G1 X131.793 Y99.961 E0.05324
G1 X131.650 Y99.059 E0.04995
G1 X132.196 Y99.000 F9000.000
G1 F900
G1 X132.321 Y98.211 E0.04373
G1 X132.684 Y97.499 E0.04373
G1 X133.249 Y96.934 E0.04373
G1 X133.961 Y96.571 E0.04373
G1 X134.732 Y96.449 E0.04274
G1 X135.538 Y96.571 E0.04461
G1 X136.251 Y96.934 E0.04379
G1 X136.816 Y97.499 E0.04373
G1 X137.179 Y98.211 E0.04373
G1 X137.304 Y99.000 E0.04373
G1 X137.179 Y99.789 E0.04373
G1 X136.816 Y100.501 E0.04373
G1 X136.251 Y101.066 E0.04373
G1 X135.539 Y101.429 E0.04373
G1 X134.750 Y101.554 E0.04373
G1 X133.960 Y101.429 E0.04379
G1 X133.236 Y101.053 E0.04461
G1 X132.684 Y100.501 E0.04274
G1 X132.321 Y99.789 E0.04373
G1 X132.206 Y99.059 E0.04044
G1 X131.850 Y98.800 F9000.000
G10 ; retract
G1 X138.639 Y104.466
G11 ; unretract
G1 F900
G1 X139.216 Y103.889 E0.04468
G1 X139.944 Y103.519 E0.04467
G1 X140.734 Y103.393 E0.04378
G1 X141.553 Y103.517 E0.04536
G1 X142.284 Y103.889 E0.04484
G1 X142.861 Y104.466 E0.04468
G1 X143.231 Y105.194 E0.04467
G1 X143.359 Y106.000 E0.04468
G1 X143.231 Y106.806 E0.04468
G1 X142.861 Y107.534 E0.04467
G1 X142.284 Y108.111 E0.04468
G1 X141.556 Y108.481 E0.04467
G1 X140.750 Y108.609 E0.04468
G1 X139.944 Y108.481 E0.04468
G1 X139.216 Y108.111 E0.04467
G1 X138.639 Y107.534 E0.04468
G1 X138.269 Y106.806 E0.04467
G1 X138.141 Y106.000 E0.04468
G1 X138.269 Y105.194 E0.04468
G1 X138.612 Y104.520 E0.04139
G1 X139.088 Y104.793 F9000.000
G1 F900
G1 X139.543 Y104.338 E0.03517
G1 X140.115 Y104.047 E0.03516
G1 X140.736 Y103.948 E0.03439
G1 X141.384 Y104.046 E0.03585
G1 X141.957 Y104.338 E0.03522
G1 X142.412 Y104.793 E0.03517
G1 X142.703 Y105.365 E0.03516
G1 X142.804 Y106.000 E0.03517
G1 X142.703 Y106.635 E0.03517
G1 X142.412 Y107.207 E0.03516
G1 X141.957 Y107.662 E0.03517
G1 X141.385 Y107.953 E0.03516
G1 X140.750 Y108.054 E0.03517
G1 X140.115 Y107.953 E0.03517
G1 X139.543 Y107.662 E0.03516
G1 X139.088 Y107.207 E0.03517
G1 X138.797 Y106.635 E0.03516
G1 X138.696 Y106.000 E0.03517
G1 X138.797 Y105.365 E0.03517
G1 X139.061 Y104.846 E0.03188
G1 X138.926 Y104.427 F9000.000
G10 ; retract
G1 X134.750 Y78.109
G11 ; unretract
G1 F900
G1 X133.786 Y77.956 E0.05341
G1 X132.908 Y77.501 E0.05412
G1 X132.235 Y76.827 E0.05214
G1 X131.793 Y75.961 E0.05324
G1 X131.641 Y75.000 E0.05324
G1 X131.793 Y74.039 E0.05324
G1 X132.235 Y73.173 E0.05324
G1 X132.923 Y72.485 E0.05324
G1 X133.789 Y72.043 E0.05324
G1 X134.730 Y71.894 E0.05214
G1 X135.708 Y72.042 E0.05412
G1 X136.577 Y72.485 E0.05341
G1 X137.265 Y73.173 E0.05324
G1 X137.707 Y74.039 E0.05324
G1 X137.859 Y75.000 E0.05324
G1 X137.707 Y75.961 E0.05324
G1 X137.265 Y76.827 E0.05324
G1 X136.577 Y77.515 E0.05324
G1 X135.711 Y77.957 E0.05324
G1 X134.809 Y78.100 E0.04995
G1 X134.750 Y77.554 F9000.000
G1 F900
G1 X133.960 Y77.429 E0.04379
G1 X133.236 Y77.053 E0.04461
G1 X132.684 Y76.501 E0.04274
G1 X132.321 Y75.789 E0.04373
G1 X132.196 Y75.000 E0.04373
G1 X132.321 Y74.211 E0.04373
G1 X132.684 Y73.499 E0.04373
G1 X133.249 Y72.934 E0.04373
G1 X133.961 Y72.571 E0.04373
G1 X134.732 Y72.449 E0.04274
G1 X135.538 Y72.571 E0.04461
G1 X136.251 Y72.934 E0.04379
G1 X136.816 Y73.499 E0.04373
G1 X137.179 Y74.211 E0.04373
G1 X137.304 Y75.000 E0.04373
G1 X137.179 Y75.789 E0.04373
G1 X136.816 Y76.501 E0.04373
G1 X136.251 Y77.066 E0.04373
G1 X135.539 Y77.429 E0.04373
G1 X134.809 Y77.544 E0.04044
G1 X134.550 Y77.900 F9000.000
G10 ; retract
G1 X119.859 Y75.000
G11 ; unretract
G1 F900
G1 X119.707 Y75.961 E0.05324
G1 X119.265 Y76.827 E0.05324
G1 X118.577 Y77.515 E0.05324
G1 X117.711 Y77.957 E0.05324
G1 X116.750 Y78.109 E0.05324
G1 X115.786 Y77.956 E0.05341
G1 X114.908 Y77.501 E0.05412
G1 X114.235 Y76.827 E0.05214
G1 X113.793 Y75.961 E0.05324
G1 X113.641 Y75.000 E0.05324
G1 X113.793 Y74.039 E0.05324
G1 X114.235 Y73.173 E0.05324
G1 X114.923 Y72.485 E0.05324
G1 X115.789 Y72.043 E0.05324
G1 X116.730 Y71.894 E0.05214
G1 X117.708 Y72.042 E0.05412
G1 X118.577 Y72.485 E0.05341
G1 X119.265 Y73.173 E0.05324
G1 X119.707 Y74.039 E0.05324
G1 X119.850 Y74.941 E0.04995
G1 X119.304 Y75.000 F9000.000
G1 F900
G1 X119.179 Y75.789 E0.04373
G1 X118.816 Y76.501 E0.04373
G1 X118.251 Y77.066 E0.04373
G1 X117.539 Y77.429 E0.04373
G1 X116.750 Y77.554 E0.04373
G1 X115.960 Y77.429 E0.04379
G1 X115.236 Y77.053 E0.04461
G1 X114.684 Y76.501 E0.04274
G1 X114.321 Y75.789 E0.04373
G1 X114.196 Y75.000 E0.04373
G1 X114.321 Y74.211 E0.04373
G1 X114.684 Y73.499 E0.04373
G1 X115.249 Y72.934 E0.04373
G1 X115.961 Y72.571 E0.04373
G1 X116.732 Y72.449 E0.04274
G1 X117.538 Y72.571 E0.04461
G1 X118.251 Y72.934 E0.04379
G1 X118.816 Y73.499 E0.04373
G1 X119.179 Y74.211 E0.04373
G1 X119.294 Y74.941 E0.04044
G1 X119.650 Y75.200 F9000.000
G10 ; retract
G1 X96.142 Y74.000
G11 ; unretract
G1 F900
G1 X95.685 Y75.406 E0.08091
G1 X94.489 Y76.275 E0.08091
G1 X93.011 Y76.275 E0.08091
G1 X91.815 Y75.406 E0.08091
G1 X91.358 Y74.000 E0.08091
G1 X91.815 Y72.594 E0.08091
G1 X93.011 Y71.725 E0.08091
G1 X94.489 Y71.725 E0.08091
G1 X95.685 Y72.594 E0.08091
G1 X96.124 Y73.943 E0.07763
G1 X95.565 Y74.000 F9000.000
G1 F900
G1 X95.219 Y75.067 E0.06141
G1 X94.311 Y75.727 E0.06141
G1 X93.189 Y75.727 E0.06141
G1 X92.281 Y75.067 E0.06141
G1 X91.935 Y74.000 E0.06141
G1 X92.281 Y72.933 E0.06141
G1 X93.189 Y72.273 E0.06141
G1 X94.311 Y72.273 E0.06141
G1 X95.219 Y72.933 E0.06141
G1 X95.547 Y73.943 E0.05812
G1 X95.912 Y74.200 F9000.000
G10 ; retract
G1 X94.489 Y97.725
G11 ; unretract
G1 F900
G1 X95.685 Y98.594 E0.08091
G1 X96.142 Y100.000 E0.08091
G1 X95.685 Y101.406 E0.08091
G1 X94.489 Y102.275 E0.08091
G1 X93.011 Y102.275 E0.08091
G1 X91.815 Y101.406 E0.08091
G1 X91.358 Y100.000 E0.08091
G1 X91.815 Y98.594 E0.08091
G1 X93.011 Y97.725 E0.08091
G1 X94.429 Y97.725 E0.07763
G1 X94.311 Y98.273 F9000.000
G1 F900
G1 X95.219 Y98.933 E0.06141
G1 X95.565 Y100.000 E0.06141
